X: 5548
T: Burren, The
R: reel
M: 4/4
K: Dmajor
|:B|~A2AB AF~F2|AFAd ~f3a|afef dB~B2|dBAF EFDF|
~A2AB AF~F2|AFAd ~f3a|afef dedB|Adfe d3:|
|:e|f2ed BA~A2|dcdf ~a3f|~g2fg e~B3|dBAF EFDE|
~A2AB AF~F2|AFAd ~f3a|afef dedB|Adfe d3:|

